resources/haticons/SVG/assistant_direction.svg

<!-- Generated by IcoMoon.io -->
<svg version="1.1" xmlns="http://www.w3.org/2000/svg" width="24" height="24" viewBox="0 0 24 24">
<title>assistant_direction</title>
<path d="M19.734 12.563q0.656-0.656 0-1.125l-7.172-7.219q-0.609-0.469-1.172 0l-7.172 7.219q-0.234 0.375-0.234 0.563t0.234 0.563l7.172 7.219q0.609 0.469 1.172 0zM12 0.984q4.594 0 7.805 3.211t3.211 7.805-3.211 7.805-7.805 3.211-7.805-3.211-3.211-7.805 3.211-7.805 7.805-3.211zM14.016 9.984v-2.484l3.469 3.516-3.469 3.469v-2.484h-4.031v3h-1.969v-3.984q0-1.031 0.984-1.031h5.016z"></path>
</svg>

<svg xmlns="http://www.w3.org/2000/svg" width="24" height="24"><path d="M19.734 12.563q.656-.656 0-1.125l-7.172-7.219q-.609-.469-1.172 0l-7.172 7.219q-.234.375-.234.563t.234.563l7.172 7.219q.609.469 1.172 0zM12 .984q4.594 0 7.805 3.211T23.016 12t-3.211 7.805T12 23.016t-7.805-3.211T.984 12t3.211-7.805T12 .984zm2.016 9V7.5l3.469 3.516-3.469 3.469v-2.484H9.985v3H8.016v-3.984q0-1.031.984-1.031h5.016z"/></svg>
